X: 4301
T: The TELEGRAPH POST
%R: hornpipe, reel
B: James Kerr "Merry Melodies" v.4 p.32 #301
Z: 2016 John Chambers <jc:trillian.mit.edu>
M: C
L: 1/8
K: C
(gf) |\
egec dfdB | cdec G2c2 |\
[1,3 d^cde fed=c | B2g2 g2 :|\
[2,4 Aagf edcB | d2c2 c2 |:\
G2 |\
GEGc AFAc |
BGBd c2(de) |\
fefg agfe | dcBA G2G2 |\
A^GAF BAB=G | cBcA d2(cB) |\
cagf edcB | d2c2 c2 :|

%%sep 1 1 500
%%sep 1 1 500

